Adwaita++/actions/22/edit-cut.svg

<svg fill="none" height="22" viewBox="0 0 22 22" width="22" xmlns="http://www.w3.org/2000/svg">
  <path clip-rule="evenodd" d="m5.30171 5.71881c-.61221-.9596-.26611-2.16481.79429-2.71881l-.00008.00012 4.90388 7.99998 4.9039-7.99998c1.0604.554 1.4065 1.7592.7943 2.71875l-4.4204 7.28123.3515.5072c.6346-.9086 1.6879-1.5073 2.8709-1.5073 1.9212 0 3.5 1.5788 3.5 3.5s-1.5788 3.5-3.5 3.5c-1.2074 0-2.2795-.6235-2.9095-1.5637l-.0119.0169-1.5787-2.4844-1.44032 2.2226c-.59987 1.0753-1.7502 1.8086-3.05958 1.8086-1.9212 0-3.5-1.5788-3.5-3.5s1.5788-3.5 3.5-3.5c1.17612 0 2.22392.5917 2.85974 1.4914l.36237-.4914zm2.69075 9.62659c-.07523-.7652-.70446-1.3454-1.49246-1.3454-.84027 0-1.5.6597-1.5 1.5s.65973 1.5 1.5 1.5 1.5-.6597 1.5-1.5c0-.034-.00108-.0677-.00321-.1011l-.02098-.0309zm7.50754-1.3454c.8403 0 1.5.6597 1.5 1.5s-.6597 1.5-1.5 1.5-1.5-.6597-1.5-1.5.6597-1.5 1.5-1.5z" fill="#444" fill-rule="evenodd"/>
</svg>

<svg xmlns="http://www.w3.org/2000/svg" fill="none" width="22" height="22" viewBox="0 0 22 22">
 <path fill="#444" fill-rule="evenodd" d="M5.30171 5.71881C4.6895 4.75921 5.0356 3.554 6.096 3L6.09592 3.00012L10.9998 11.0001L15.9037 3.00012C16.9641 3.55412 17.3102 4.75932 16.698 5.71887L12.2776 13.0001L12.6291 13.5073C13.2637 12.5987 14.317 12 15.5 12C17.4212 12 19 13.5788 19 15.5C19 17.4212 17.4212 19 15.5 19C14.2926 19 13.2205 18.3765 12.5905 17.4363L12.5786 17.4532L10.9999 14.9688L9.55958 17.1914C8.95971 18.2667 7.80938 19 6.5 19C4.5788 19 3 17.4212 3 15.5C3 13.5788 4.5788 12 6.5 12C7.67612 12 8.72392 12.5917 9.35974 13.4914L9.72211 13L5.30171 5.71881ZM7.99246 15.3454C7.91723 14.5802 7.288 14 6.5 14C5.65973 14 5 14.6597 5 15.5C5 16.3403 5.65973 17 6.5 17C7.34027 17 8 16.3403 8 15.5C8 15.466 7.99892 15.4323 7.99679 15.3989L7.97581 15.368L7.99246 15.3454ZM15.5 14C16.3403 14 17 14.6597 17 15.5C17 16.3403 16.3403 17 15.5 17C14.6597 17 14 16.3403 14 15.5C14 14.6597 14.6597 14 15.5 14Z" clip-rule="evenodd"/>
</svg>
